src/shared/assets/copy.svg

<svg width="24" height="24" viewBox="0 0 24 24" fill="none" xmlns="http://www.w3.org/2000/svg">
<g clip-path="url(#clip0_13_3793)">
<path d="M11.125 2H15.9727C16.4688 2 16.9453 2.19922 17.2969 2.55078L19.9492 5.20312C20.3008 5.55469 20.5 6.03125 20.5 6.52734V15.125C20.5 16.1602 19.6602 17 18.625 17H11.125C10.0898 17 9.25 16.1602 9.25 15.125V3.875C9.25 2.83984 10.0898 2 11.125 2ZM4.875 7H8V9.5H5.5V19.5H13V18.25H15.5V20.125C15.5 21.1602 14.6602 22 13.625 22H4.875C3.83984 22 3 21.1602 3 20.125V8.875C3 7.83984 3.83984 7 4.875 7Z" fill="white"/>
</g>
<defs>
<clipPath id="clip0_13_3793">
<rect width="17.5" height="20" fill="white" transform="translate(3 2)"/>
</clipPath>
</defs>
</svg>

<svg xmlns="http://www.w3.org/2000/svg" fill="currentColor" viewBox="0 0 24 24">
  <path d="M11.125 2h4.848c.496 0 .972.2 1.324.55l2.652 2.653c.352.352.551.828.551 1.324v8.598c0 1.035-.84 1.875-1.875 1.875h-7.5a1.875 1.875 0 0 1-1.875-1.875V3.875C9.25 2.84 10.09 2 11.125 2Zm-6.25 5H8v2.5H5.5v10H13v-1.25h2.5v1.875c0 1.035-.84 1.875-1.875 1.875h-8.75A1.875 1.875 0 0 1 3 20.125V8.875C3 7.84 3.84 7 4.875 7Z"/>
</svg>
